X:1
T: Lady Charlotte Durham (No.2)
C:Nathaniel Gow
R:Strathspey
Q: 128
K:A
M:4/4
L:1/16
f2|:e3A c3A B2=G2 G2f2|e3A c3A cde2 =g4|e2=g2 d2g2 B2=G2 G3f|e2A2 c2A2 cde2 a4:|
|:c2e2 e2a2 =g3d B2G2|c2e2 e2a2 c2e2 a2e2|ce3 A2a2 =g3d B2=G2|c3A d3B cde2 a4|
c2e2 e2a2 =g3d B2G2|c2e2 e2a2 c2e2 a2e2|ce3 A2a2 B2=g2 B2=G2|c2e2 d2f2 e2g2 a4:|
|:e3A c3A B2=G2 G2f2|e3A c3A cde2 =g4|e2=g2 d2g2 B2=G2 G3f|e2A2 c2A2 cde2 a4:|
